X: 5
T: A-Rovin'
P: piffero primo b0045
O: safd 083 mod
%R: hornpipe, reel
F: http://ancients.sudburymuster.org/mus/ssp/pdf/seamedF.pdf
Z: 2019 John Chambers <jc:trillian.mit.edu>
M: 2/4
L: 1/16
K: G
D2 \
| G2G2 ABc2 | B2A2 G2D2 | G3A B2c2 | d6 d2 \
| e2e2 c2e2 | d2d2 B2d2 | c2B2 A2GA | B2G2 E2D2 \
| G3A B2c2 | (d2g2) e2c2 |
| B4 A4 | G6 d2 \
| e4 c2e2 | d4 B2d2 | c2B2 A2GA | B2G2 D4 \
| G3A B2c2 | (d2g2) e2c2 | B4 A4 | G6 :|


